X:1
T: "All The Go"
C:
R:Reel
I:speed 232
Q:232
K:D
M:4/4
L:1/8
fB B2 fB de|fB B2 eA ce|fB B2 fB de|f^g af eA ce|fB B2 fB de|fB B2 eA ce|fB B2 fB de|f^g af eA ce|
fb zb fe ^de|fa za eA ce|fB bB aB fB|fe f^g ae cA|fb zb fe ^de|fa za eA ce|fz bz az gz|fe f^g ae ce|
fb zb fe ^de|fa za eA ce|fB bB aB fB|fe f^g ae cA|fb zb fe ^de|fa za eA ce|fz bz az gz|fe f^g ae ce|
fB B2 fB de|fB B2 eA ce|fB B2 fB de|f^g af eA ce|fB B2 fB de|fB B2 eA ce|fB B2 fB de|f^g af eA ce||
